X:514
T:Major McBean
R:Strathspey
B:The Athole Collection
M:C|
L:1/8
K:A
c|A2 c>A e>Ac>e|f>ef>a b<B B>c|A2 c>A e>Ac>e|1 f>dB>G A2 A:|2
f<a B>G A2A||d|c>AE>A c<A e>A|c>AE>A B>B,B,>d|c>AE>A c<A e>c|1
f>dB>G A2A:|2 f<A B>G A2A||

